svgs/duotone/window-frame-open.svg

<svg xmlns="http://www.w3.org/2000/svg" viewBox="0 0 512 512"><!--! Font Awesome Pro 6.4.0 by @fontawesome - https://fontawesome.com License - https://fontawesome.com/license (Commercial License) Copyright 2023 Fonticons, Inc. --><defs><style>.fa-secondary{opacity:.4}</style></defs><path class="fa-primary" d="M480 224V64c0-35.3-28.7-64-64-64H96C60.7 0 32 28.7 32 64V224v64H96 416h64V224zm-64 0H280V64H416V224zm-184 0H96V64H232V224zM96 448V320H32V448c-17.7 0-32 14.3-32 32s14.3 32 32 32H64 448h32c17.7 0 32-14.3 32-32s-14.3-32-32-32V320H416V448H96z"/><path class="fa-secondary" d="M232 64H96V224H232V64zm48 160H416V64H280V224z"/></svg>

<svg xmlns="http://www.w3.org/2000/svg" viewBox="0 0 512 512"><!--! Font Awesome Pro 6.6.0 by @fontawesome - https://fontawesome.com License - https://fontawesome.com/license (Commercial License) Copyright 2024 Fonticons, Inc. --><defs><style>.fa-secondary{opacity:.4}</style></defs><path class="fa-secondary" d="M96 64l0 160 136 0 0-160L96 64zm184 0l0 160 136 0 0-160L280 64z"/><path class="fa-primary" d="M480 224l0-160c0-35.3-28.7-64-64-64L96 0C60.7 0 32 28.7 32 64l0 160 0 64 64 0 320 0 64 0 0-64zm-64 0l-136 0 0-160 136 0 0 160zm-184 0L96 224 96 64l136 0 0 160zM96 448l0-128-64 0 0 128c-17.7 0-32 14.3-32 32s14.3 32 32 32l32 0 384 0 32 0c17.7 0 32-14.3 32-32s-14.3-32-32-32l0-128-64 0 0 128L96 448z"/></svg>
